icons/line/cursor-click.svg

<svg width="24" height="24" fill="none" xmlns="http://www.w3.org/2000/svg"><path d="M21 21l-5-5m0 0l5-2-11-4 4 11 2-5zm-3-9l2-2m-8 8l-2 2m4-9L8 3M6 9L3 8" stroke="currentColor" stroke-width="2" stroke-linecap="round" stroke-linejoin="round"/></svg>

<svg width="24" height="24" viewBox="0 0 24 24" fill="none" xmlns="http://www.w3.org/2000/svg">
<path d="M21 21L16 16M16 16L21 14L10 10L14 21L16 16ZM13 7L15 5M7 13L5 15M9 6L8 3M6 9L3 8" stroke="currentColor" stroke-width="2" stroke-linecap="round" stroke-linejoin="round"/>
</svg>
